public/editor-src/editor/icons/editor/woo-gallery.svg

<svg id="nc-woo-gallery" viewBox="0 0 16 16">
    <g stroke="none" stroke-width="1" fill-rule="evenodd">
        <path d="M2,14 L4,14 C4.55228475,14 5,14.4477153 5,15 C5,15.5522847 4.55228475,16 4,16 L2,16 C1.44771525,16 1,15.5522847 1,15 C1,14.4477153 1.44771525,14 2,14 Z M7,14 L9,14 C9.55228475,14 10,14.4477153 10,15 C10,15.5522847 9.55228475,16 9,16 L7,16 C6.44771525,16 6,15.5522847 6,15 C6,14.4477153 6.44771525,14 7,14 Z M12,14 L14,14 C14.5522847,14 15,14.4477153 15,15 C15,15.5522847 14.5522847,16 14,16 L12,16 C11.4477153,16 11,15.5522847 11,15 C11,14.4477153 11.4477153,14 12,14 Z M14.9230769,0 C15.5175385,0 16,0.5376 16,1.2 L16,10.8 C16,11.4624 15.5175385,12 14.9230769,12 L1.07692308,12 C0.482461538,12 0,11.4624 0,10.8 L0,1.2 C0,0.5376 0.482461538,0 1.07692308,0 L14.9230769,0 Z M9.44391025,4.92307692 C9.35544876,4.92307692 9.27176763,4.96538039 9.21641025,5.0380854 L9.21641025,5.0380854 L7.88057692,6.80829532 C7.8253276,6.88330778 7.74027396,6.92719847 7.65016025,6.92719847 C7.56004655,6.92719847 7.47499291,6.88330778 7.41974359,6.80829532 L7.41974359,6.80829532 L6.83641025,5.97236285 C6.78011848,5.89486134 6.69278133,5.84940682 6.60016025,5.84940682 C6.50753916,5.84940682 6.42020202,5.89486134 6.36391025,5.97236285 L6.36391025,5.97236285 L4.98141025,7.92082307 C4.94391522,7.97422373 4.92348851,8.0387944 4.92307692,8.10521994 L4.92307692,8.10521994 L4.92307692,8.30805649 C4.92307692,8.38956498 4.953806,8.46773509 5.00850411,8.52537029 C5.06320222,8.5830055 5.13738877,8.61538462 5.21474359,8.61538462 L5.21474359,8.61538462 L11.6314102,8.61538462 C11.7087651,8.61538462 11.7829516,8.5830055 11.8376497,8.5253703 C11.8923478,8.46773509 11.9230769,8.38956498 11.9230769,8.30805649 L11.9230769,8.30805649 L11.9172436,8.10521994 C11.9172639,8.03395225 11.8946787,7.96472179 11.8530769,7.90852995 L11.8530769,7.90852995 L9.67141025,5.0380854 C9.61605286,4.96538039 9.53237174,4.92307692 9.44391025,4.92307692 Z M7.15384615,2.46153846 C6.6015614,2.46153846 6.15384615,2.90925371 6.15384615,3.46153846 C6.15384615,4.01382321 6.6015614,4.46153846 7.15384615,4.46153846 C7.7061309,4.46153846 8.15384615,4.01382321 8.15384615,3.46153846 C8.15384615,2.90925371 7.7061309,2.46153846 7.15384615,2.46153846 Z"  fill="currentColor" fill-rule="nonzero"/>
    </g>
</svg>

<svg viewBox="0 0 16 16"><path fill="currentColor" fill-rule="nonzero" d="M2 14h2a1 1 0 0 1 0 2H2a1 1 0 0 1 0-2Zm5 0h2a1 1 0 0 1 0 2H7a1 1 0 0 1 0-2Zm5 0h2a1 1 0 0 1 0 2h-2a1 1 0 0 1 0-2Zm2.923-14C15.518 0 16 .538 16 1.2v9.6c0 .662-.482 1.2-1.077 1.2H1.077C.482 12 0 11.462 0 10.8V1.2C0 .538.482 0 1.077 0h13.846Zm-5.48 4.923a.286.286 0 0 0-.227.115l-1.335 1.77a.287.287 0 0 1-.23.12.287.287 0 0 1-.231-.12l-.584-.836A.292.292 0 0 0 6.6 5.85a.292.292 0 0 0-.236.123L4.98 7.921a.325.325 0 0 0-.058.184v.203c0 .082.03.16.086.217.054.058.128.09.206.09h6.416a.284.284 0 0 0 .207-.09.316.316 0 0 0 .085-.217l-.006-.203a.33.33 0 0 0-.064-.196l-2.182-2.87a.286.286 0 0 0-.227-.116Zm-2.29-2.461a1 1 0 1 0 0 2 1 1 0 0 0 0-2Z"/></svg>
